src/pos-icons/elephant.svg

<svg height="24" viewBox="0 0 24 24" width="24" xmlns="http://www.w3.org/2000/svg"><path d="m19.5 15.5a.5.5 0 0 1 -.5.5.5.5 0 0 1 -.5-.5v-7c0-1.93-2.07-3.5-4-3.5h-8.5a4 4 0 0 0 -4 4v10h4v-4h5v4h4v-4.5a.5.5 0 0 1 .5-.5.5.5 0 0 1 .5.5v1.5a3 3 0 0 0 3 3 3 3 0 0 0 3-3v-2h-2.5z"/></svg>

<?xml version="1.0" encoding="UTF-8"?><!DOCTYPE svg PUBLIC "-//W3C//DTD SVG 1.1//EN" "http://www.w3.org/Graphics/SVG/1.1/DTD/svg11.dtd"><svg xmlns="http://www.w3.org/2000/svg" xmlns:xlink="http://www.w3.org/1999/xlink" version="1.1" id="mdi-elephant" width="24" height="24" viewBox="0 0 24 24"><path d="M19.5,15.5A0.5,0.5 0 0,1 19,16A0.5,0.5 0 0,1 18.5,15.5V8.5C18.5,6.57 16.43,5 14.5,5H6A4,4 0 0,0 2,9V19H6V15H11V19H15V14.5A0.5,0.5 0 0,1 15.5,14A0.5,0.5 0 0,1 16,14.5V16A3,3 0 0,0 19,19A3,3 0 0,0 22,16V14H19.5V15.5Z" /></svg>
